src/assets/icons/error.svg

<?xml version="1.0" encoding="UTF-8" standalone="no"?>
<svg width="28px" height="28px" viewBox="0 0 28 28" version="1.1" xmlns="http://www.w3.org/2000/svg" xmlns:xlink="http://www.w3.org/1999/xlink" xmlns:sketch="http://www.bohemiancoding.com/sketch/ns">
    <!-- Generator: Sketch 3.3.3 (12081) - http://www.bohemiancoding.com/sketch -->
    <title>Error icon</title>
    <g id="Page-1" stroke-width="1" fill-rule="evenodd" sketch:type="MSPage">
        <path d="M14,0 C6.2685,0 0,6.2685 0,14 C0,21.7315 6.2685,28 14,28 C21.7315,28 28,21.7315 28,14 C28,6.2685 21.7315,0 14,0 Z M15.6275,5.25 L11.6375,5.25 L12.005,15.75 L15.26,15.75 L15.6275,5.25 Z M11.375,20.755 C11.375,22.015 12.29375,23.0125 13.6325,23.0125 C14.97125,23.0125 15.89,22.015 15.89,20.755 C15.89,19.41625 14.97125,18.52375 13.6325,18.52375 C12.29375,18.52375 11.375,19.41625 11.375,20.755 L11.375,20.755 Z" id="Shape-2-Copy-Copy-4" sketch:type="MSShapeGroup"></path>
    </g>
</svg>

<svg width="28" height="28" xmlns="http://www.w3.org/2000/svg"><path d="M14 0C6.269 0 0 6.269 0 14c0 7.732 6.269 14 14 14 7.732 0 14-6.268 14-14 0-7.731-6.268-14-14-14zm1.627 5.25h-3.99l.368 10.5h3.255l.367-10.5zm-4.252 15.505c0 1.26.919 2.258 2.258 2.258 1.338 0 2.257-.998 2.257-2.258 0-1.339-.919-2.231-2.258-2.231-1.338 0-2.257.892-2.257 2.231z" fill-rule="evenodd"/></svg>
